X: 1134
T: Gan Ainm
M: 2/4
L: 1/8
R: polka
K: G Major
|: D |
GB/d/ g/b/a/f/ | gf c>d | ed cA | ed B>A |
GB/d/ g/b/a/f/ |gf c>d | ed cF | G3 :|
|: B/d/ |
gg gg |f3 G/B/ | ee ee |d3 G |
FA/c/ ed | FA FA |FA/c/ ed |[1 B3 :|[2 G3 ||
